icons/outpatient_department_fill.svg

<svg width="48" height="48" viewBox="0 0 48 48" fill="none" xmlns="http://www.w3.org/2000/svg">
<path fill-rule="evenodd" clip-rule="evenodd" d="M6 9C6 7.34315 7.34315 6 9 6H39C40.6569 6 42 7.34315 42 9V39C42 40.6569 40.6569 42 39 42H9C7.34315 42 6 40.6569 6 39V9ZM15.0801 27.6023C15.3235 25.6407 15.9123 23.8722 16.5748 22.4518L17.152 24.6491C17.3252 25.3083 17.9211 25.768 18.6028 25.768H22.666C23.4945 25.768 24.166 25.0964 24.166 24.268C24.166 23.4395 23.4945 22.768 22.666 22.768H19.7597L18.5863 18.301C18.4131 17.6417 17.8172 17.1821 17.1355 17.1821C15.0246 17.1821 13.335 18.4433 12.24 20.0016C11.14 21.567 10.5 23.6032 10.5 25.6146C10.5 26.1934 10.6432 26.7833 10.799 27.2727C10.9609 27.7814 11.1698 28.2831 11.3678 28.7138C11.5673 29.1477 11.7653 29.5304 11.913 29.8041C11.9797 29.9277 12.0368 30.0303 12.0801 30.1069V36.4548C12.0801 37.2832 12.7517 37.9548 13.5801 37.9548C14.4085 37.9548 15.0801 37.2832 15.0801 36.4548V27.6023ZM19.9008 16.3639C21.3642 16.3639 22.5952 15.3911 22.9548 14.0707C21.9652 14.23 21.0507 14.2923 20.1233 14.1682C19.0155 14.0199 17.9578 13.6161 16.7616 12.9137C16.7476 13.0316 16.7405 13.1515 16.7405 13.273C16.7405 14.98 18.1554 16.3639 19.9008 16.3639ZM19.9008 10.1821C19.016 10.1821 18.2162 10.5377 17.6425 11.1107C18.7441 11.774 19.5827 12.078 20.3887 12.1859C21.1035 12.2816 21.8495 12.2317 22.8114 12.0668C22.3309 10.9591 21.2086 10.1821 19.9008 10.1821ZM25.4313 12.8864C25.4313 13.9533 24.9007 14.8182 24.2462 14.8182C23.5916 14.8182 23.061 13.9533 23.061 12.8864C23.061 11.8195 23.5916 10.9546 24.2462 10.9546C24.9007 10.9546 25.4313 11.8195 25.4313 12.8864ZM37.2825 16.3638C37.2825 18.0709 35.8676 19.4547 34.1222 19.4547C32.3768 19.4547 30.9619 18.0709 30.9619 16.3638C30.9619 14.6568 32.3768 13.2729 34.1222 13.2729C35.8676 13.2729 37.2825 14.6568 37.2825 16.3638ZM31.0382 27.0873L30.4325 25.7703C30.3257 26.0447 30.2413 26.3148 30.1751 26.5883C29.9998 27.3133 29.9366 28.127 29.984 29.1927C30.6059 29.3933 31.2245 29.5616 31.7301 29.6934C31.859 29.727 31.9938 29.7616 32.1182 29.7936C32.2504 29.8275 32.371 29.8585 32.4607 29.8822C32.5544 29.9069 32.6509 29.933 32.7331 29.9578C32.773 29.9699 32.8285 29.9873 32.8871 30.0091L32.8892 30.0098C32.9123 30.0181 33.0902 30.0815 33.2687 30.2082C33.4241 30.3184 33.5313 30.4414 33.5504 30.4632L33.5525 30.4657C33.5919 30.5103 33.6267 30.5536 33.6525 30.5867C33.7057 30.6546 33.7639 30.7339 33.8213 30.8138C33.938 30.9766 34.0863 31.1915 34.2506 31.4335C34.5809 31.9201 34.9991 32.5508 35.4075 33.1714C35.8167 33.7933 36.2192 34.4101 36.5193 34.8712C36.6694 35.1019 36.794 35.2937 36.8811 35.428L37.0181 35.6394L34.4995 37.2693L34.3643 37.0607C34.2778 36.9274 34.1541 36.7368 34.0049 36.5076C33.7064 36.0489 33.3068 35.4366 32.9013 34.8204C32.4951 34.203 32.0863 33.5868 31.7684 33.1184C31.6683 32.971 31.5795 32.8416 31.504 32.7332L31.3863 32.703C31.2694 32.673 31.1351 32.6386 30.9731 32.5963C30.5289 32.4805 29.9708 32.33 29.3817 32.1483L29.3817 38H27.8015V32.5911H19.1107L19.1107 38H17.5305V30.2729H25.5518C25.4777 30.2011 25.4062 30.1256 25.3384 30.0462C25.0294 29.6846 24.7214 29.1505 24.7214 28.4696C24.7214 24.8358 25.7238 22.587 26.9351 21.2262C27.5303 20.5575 28.1417 20.1431 28.6298 19.8918C28.8729 19.7666 29.0846 19.6823 29.2478 19.6266C29.3295 19.5987 29.3994 19.5779 29.4554 19.5627C29.4834 19.5551 29.508 19.5489 29.5289 19.5439L29.5575 19.5372L29.5697 19.5345L29.5753 19.5333L29.5779 19.5328C29.5792 19.5325 29.5805 19.5322 29.8897 21L29.5805 19.5322C30.2658 19.3878 30.9598 19.7369 31.2524 20.3733L33.3621 24.9605H36.4924C37.3209 24.9605 37.9924 25.6321 37.9924 26.4605C37.9924 27.289 37.3209 27.9605 36.4924 27.9605H32.401C31.8152 27.9605 31.283 27.6195 31.0382 27.0873ZM37.0181 35.6394C37.4681 36.3349 37.2692 37.2636 36.5737 37.7137C35.8782 38.1638 34.9495 37.9648 34.4995 37.2693L37.0181 35.6394Z" fill="black"/>
</svg>

<svg
  xmlns="http://www.w3.org/2000/svg"
  width="24"
  height="24"
  viewBox="0 0 24 24"
  fill="none"
  stroke="currentColor"
  stroke-width="2"
  stroke-linecap="round"
  stroke-linejoin="round"
>
  <path
    fill-rule="evenodd"
    d="M6 9a3 3 0 0 1 3-3h30a3 3 0 0 1 3 3v30a3 3 0 0 1-3 3H9a3 3 0 0 1-3-3zm9.08 18.602c.243-1.961.832-3.73 1.495-5.15l.577 2.197a1.5 1.5 0 0 0 1.45 1.119h4.064a1.5 1.5 0 1 0 0-3H19.76l-1.174-4.467a1.5 1.5 0 0 0-1.45-1.119c-2.111 0-3.801 1.261-4.896 2.82-1.1 1.565-1.74 3.601-1.74 5.613 0 .578.143 1.168.299 1.658.162.508.37 1.01.569 1.44a19 19 0 0 0 .712 1.394v6.348a1.5 1.5 0 0 0 3 0zm4.82-11.238c1.464 0 2.695-.973 3.055-2.293-.99.159-1.904.221-2.832.097-1.108-.148-2.165-.552-3.361-1.254a3 3 0 0 0-.021.359c0 1.707 1.414 3.09 3.16 3.09m0-6.182c-.884 0-1.684.356-2.258.929 1.102.663 1.94.967 2.747 1.075.715.096 1.46.046 2.422-.12a3.16 3.16 0 0 0-2.91-1.884m5.531 2.704c0 1.067-.53 1.932-1.185 1.932-.654 0-1.185-.865-1.185-1.932s.53-1.931 1.185-1.931 1.185.864 1.185 1.931m11.851 3.478c0 1.707-1.414 3.09-3.16 3.09-1.745 0-3.16-1.383-3.16-3.09s1.415-3.091 3.16-3.091 3.16 1.384 3.16 3.09m-6.244 10.723-.605-1.317a6 6 0 0 0-.258.818c-.175.725-.238 1.539-.191 2.605.622.2 1.24.369 1.746.5l.388.1.343.09c.093.024.19.05.272.075.04.012.096.03.154.051h.002c.023.01.201.072.38.2.155.11.262.232.281.254l.003.003c.039.044.074.088.1.12.053.069.11.148.168.228.117.163.265.378.43.62.33.486.748 1.117 1.157 1.737a417 417 0 0 1 1.473 2.257l.137.211-2.519 1.63-.135-.208a442 442 0 0 0-1.463-2.24 153 153 0 0 0-1.133-1.703l-.264-.385-.118-.03-.413-.107a38 38 0 0 1-1.591-.448V38h-1.58v-5.409H19.11V38h-1.58v-7.727h8.02a3 3 0 0 1-.213-.227c-.309-.361-.617-.895-.617-1.576 0-3.634 1.003-5.883 2.214-7.244a5.9 5.9 0 0 1 1.695-1.334 4.6 4.6 0 0 1 .825-.33l.074-.018.029-.007.012-.002.005-.002h.003c.001 0 .003 0 .312 1.467l-.31-1.468a1.5 1.5 0 0 1 1.672.841l2.11 4.587h3.13a1.5 1.5 0 1 1 0 3h-4.091a1.5 1.5 0 0 1-1.363-.873m5.98 8.552a1.5 1.5 0 0 1-2.519 1.63z"
    clip-rule="evenodd"
  />
</svg>
